svg/transport/seat_heated_fill.svg

<?xml version="1.0" encoding="UTF-8"?>
<svg width="24px" height="24px" viewBox="0 0 24 24" version="1.1" xmlns="http://www.w3.org/2000/svg" xmlns:xlink="http://www.w3.org/1999/xlink">
    <title>seat_heated_fill</title>
    <g id="页面-1" stroke="none" stroke-width="1" fill="none" fill-rule="evenodd">
        <g id="Transport" transform="translate(-384.000000, -240.000000)" fill-rule="nonzero">
            <g id="seat_heated_fill" transform="translate(384.000000, 240.000000)">
                 <path d="M24,0 L24,24 L0,24 L0,0 L24,0 Z M12.5934901,23.257841 L12.5819402,23.2595131 L12.5108777,23.2950439 L12.4918791,23.2987469 L12.4918791,23.2987469 L12.4767152,23.2950439 L12.4056548,23.2595131 C12.3958229,23.2563662 12.3870493,23.2590235 12.3821421,23.2649074 L12.3780323,23.275831 L12.360941,23.7031097 L12.3658947,23.7234994 L12.3769048,23.7357139 L12.4804777,23.8096931 L12.4953491,23.8136134 L12.4953491,23.8136134 L12.5071152,23.8096931 L12.6106902,23.7357139 L12.6232938,23.7196733 L12.6232938,23.7196733 L12.6266527,23.7031097 L12.609561,23.275831 C12.6075724,23.2657013 12.6010112,23.2592993 12.5934901,23.257841 L12.5934901,23.257841 Z M12.8583906,23.1452862 L12.8445485,23.1473072 L12.6598443,23.2396597 L12.6498822,23.2499052 L12.6498822,23.2499052 L12.6471943,23.2611114 L12.6650943,23.6906389 L12.6699349,23.7034178 L12.6699349,23.7034178 L12.678386,23.7104931 L12.8793402,23.8032389 C12.8914285,23.8068999 12.9022333,23.8029875 12.9078286,23.7952264 L12.9118235,23.7811639 L12.8776777,23.1665331 C12.8752882,23.1545897 12.8674102,23.1470016 12.8583906,23.1452862 L12.8583906,23.1452862 Z M12.1430473,23.1473072 C12.1332178,23.1423925 12.1221763,23.1452606 12.1156365,23.1525954 L12.1099173,23.1665331 L12.0757714,23.7811639 C12.0751323,23.7926639 12.0828099,23.8018602 12.0926481,23.8045676 L12.108256,23.8032389 L12.3092106,23.7104931 L12.3186497,23.7024347 L12.3186497,23.7024347 L12.3225043,23.6906389 L12.340401,23.2611114 L12.337245,23.2485176 L12.337245,23.2485176 L12.3277531,23.2396597 L12.1430473,23.1473072 Z" id="MingCute" fill-rule="nonzero"></path>
                <path d="M6.27185,15.304 C7.48582,15.4557 8.86051,15.6843 10.2427,16.0299 C12.2527448,16.5323966 14.0129644,17.4967776 15.3149255,18.3776759 L15.7550737,18.6842267 L15.7550737,18.6842267 L16.1551295,18.9785165 L16.1551295,18.9785165 L16.5130564,19.2552169 L16.5130564,19.2552169 L16.826818,19.5089998 L16.826818,19.5089998 L17.094378,19.7345369 L17.094378,19.7345369 L17.3137,19.9265 L17.3137,19.9265 C18.1569667,20.6782852 17.5836007,21.9049395 16.6290707,21.9947715 L16.5173,22 L7.92264,22 C6.24119,22 4.84315,21.1546 3.81878,19.8741 C3.04484,18.9067 2.97985,17.6913 3.46824,16.7451 C3.96271,15.7871 5.00711,15.1459 6.27185,15.304 Z M19.0001,2 C19.893365,2 20.2784235,2.8403542 20.4674352,3.6103705 L20.5265132,3.87773744 C20.5351723,3.92131753 20.54328,3.9642835 20.5509,4.00645 C20.6949,4.80313 20.7724,5.84843 20.8026,6.92161 C20.8624,9.04741 20.7414,11.5243 20.4763,12.7169 C20.0137,14.7989 19.3351,16.2458 18.5243,17.1182 C17.6976,18.0079 16.5823,18.4091 15.5529,17.8944 C14.7644,17.5001 14.2932,16.563 14.0346,15.7632 C13.7175,14.7828 13.6072,13.5165 14.0515,12.1838 C14.2620444,11.5520889 14.6399148,11.0415469 15.0558627,10.5569433 L15.4187,10.1457 C15.8609,9.65135 16.3043,9.15561 16.6057,8.55279 C17.0457,7.67282077 17.166055,6.70996988 17.2030418,5.74280356 L17.2171199,5.16261445 L17.2171199,5.16261445 L17.2258914,4.60356695 C17.2274837,4.5578205 17.2294331,4.51174157 17.2317922,4.46542342 L17.2512848,4.1853898 C17.3480839,3.10664236 17.7173571,2 19.0001,2 Z M6.62482,3.21913 C7.05608,3.56414 7.126,4.19343 6.78099,4.6247 L6.5479,4.91606 C5.89850944,5.72780056 5.92363954,6.87809926 6.58409242,7.65905279 L6.70723,7.79289 C8.20614,9.2918 8.3383,11.6781 7.01409,13.3333 L6.78099,13.6247 C6.43598,14.056 5.80669,14.1259 5.37543,13.7809 C4.94416,13.4359 4.87424,12.8066 5.21925,12.3753 L5.45235,12.0839 C6.10174056,11.2722444 6.07660154,10.1219059 5.41615609,9.34094764 L5.29302,9.20711 C3.79411,7.7082 3.66194,5.32194 4.98616,3.66667 L5.21925,3.3753 C5.56426,2.94404 6.19356,2.87412 6.62482,3.21913 Z M9.21925,3.3753 C9.56426,2.94404 10.1936,2.87412 10.6248,3.21913 C11.0229231,3.53760077 11.1131077,4.09829828 10.8532746,4.52188053 L10.781,4.6247 L10.5479,4.91606 C9.89850944,5.72780056 9.92363954,6.87809926 10.5840672,7.65905279 L10.7072,7.79289 C12.1544138,9.24011345 12.3275577,11.5145827 11.1458946,13.1595308 L11.0141,13.3333 L10.781,13.6247 C10.436,14.056 9.80669,14.1259 9.37543,13.7809 C8.97734385,13.4624385 8.88713651,12.9017331 9.14697371,12.478126 L9.21925,12.3753 L9.45235,12.0839 C10.1017028,11.2722444 10.0765884,10.1219059 9.41615425,9.34094764 L9.29302,9.20711 C7.84579655,7.75988655 7.67268031,5.48545454 8.85436326,3.84044605 L8.98616,3.66667 L9.21925,3.3753 Z" id="形状" fill="#09244B"></path>
            </g>
        </g>
    </g>
</svg>

<svg xmlns="http://www.w3.org/2000/svg" width="24" height="24"><g fill="none" fill-rule="nonzero"><path d="M24 0v24H0V0h24ZM12.593 23.258l-.011.002-.071.035-.02.004-.014-.004-.071-.035c-.01-.004-.019-.001-.024.005l-.004.01-.017.428.005.02.01.013.104.074.015.004.012-.004.104-.074.012-.016.004-.017-.017-.427c-.002-.01-.009-.017-.017-.018Zm.265-.113-.013.002-.185.093-.01.01-.003.011.018.43.005.012.008.007.201.093c.012.004.023 0 .029-.008l.004-.014-.034-.614c-.003-.012-.01-.02-.02-.022Zm-.715.002a.023.023 0 0 0-.027.006l-.006.014-.034.614c0 .012.007.02.017.024l.015-.002.201-.093.01-.008.004-.011.017-.43-.003-.012-.01-.01-.184-.092Z"/><path fill="#09244B" d="M6.272 15.304c1.214.152 2.589.38 3.97.726 2.01.502 3.771 1.467 5.073 2.348l.44.306.4.295.358.276.314.254.267.226.22.192c.843.751.27 1.978-.685 2.068l-.112.005H7.923c-1.682 0-3.08-.845-4.104-2.126-.774-.967-.84-2.183-.35-3.129.494-.958 1.538-1.6 2.803-1.441ZM19 2c.893 0 1.278.84 1.467 1.61l.06.268.024.128c.144.797.221 1.842.252 2.916.06 2.125-.062 4.602-.327 5.795-.462 2.082-1.14 3.529-1.952 4.401-.826.89-1.942 1.291-2.971.776-.789-.394-1.26-1.331-1.518-2.13a5.734 5.734 0 0 1 .017-3.58c.21-.632.588-1.142 1.004-1.627l.363-.411c.442-.495.885-.99 1.187-1.593.44-.88.56-1.843.597-2.81l.014-.58.009-.56.006-.138.02-.28C17.347 3.107 17.716 2 19 2ZM6.625 3.22a1 1 0 0 1 .156 1.405l-.233.291a2.16 2.16 0 0 0 .036 2.743l.123.134a4.16 4.16 0 0 1 .307 5.54l-.233.292a1 1 0 1 1-1.562-1.25l.233-.291a2.16 2.16 0 0 0-.036-2.743l-.123-.134a4.16 4.16 0 0 1-.307-5.54l.233-.292a1 1 0 0 1 1.406-.156Zm2.594.155a1 1 0 0 1 1.634 1.147l-.072.103-.233.291a2.16 2.16 0 0 0 .036 2.743l.123.134a4.16 4.16 0 0 1 .439 5.367l-.132.173-.233.292a1 1 0 0 1-1.634-1.147l.072-.103.233-.291a2.16 2.16 0 0 0-.036-2.743l-.123-.134a4.16 4.16 0 0 1-.439-5.367l.132-.173.233-.292Z"/></g></svg>
